svgs/edx.svg

﻿<svg width="192" height="192" viewBox="0 0 192 192" fill="none" xmlns="http://www.w3.org/2000/svg">
<path d="M60.0845 101.929C60.0845 97.532 58.669 93.258 56.0569 89.7676C53.4448 86.2772 49.7817 83.7649 45.6342 82.6194C41.4867 81.4738 37.086 81.7588 33.1126 83.4303C29.1393 85.1018 25.8149 88.0666 23.6535 91.8661C21.4922 95.6656 20.6144 100.088 21.1559 104.45C21.6974 108.811 23.628 112.868 26.6492 115.994C29.6704 119.12 33.6137 121.139 37.8692 121.741C42.1247 122.342 46.4553 121.491 50.191 119.321" stroke="black" stroke-width="10" stroke-linecap="round" stroke-linejoin="round"/>
<path d="M60.0845 102.429H21" stroke="black" stroke-width="10" stroke-linecap="round"/>
<path d="M115.014 102.5C115.014 105.126 114.509 107.727 113.527 110.154C112.544 112.58 111.105 114.785 109.29 116.642C107.476 118.499 105.321 119.972 102.95 120.978C100.579 121.983 98.0382 122.5 95.4719 122.5C92.9056 122.5 90.3644 121.983 87.9934 120.978C85.6224 119.972 83.4681 118.499 81.6534 116.642C79.8388 114.785 78.3993 112.58 77.4172 110.154C76.4351 107.727 75.9296 105.126 75.9296 102.5C75.9296 99.8736 76.4351 97.2728 77.4172 94.8463C78.3993 92.4198 79.8388 90.215 81.6534 88.3579C83.4681 86.5007 85.6224 85.0275 87.9934 84.0224C90.3644 83.0173 92.9056 82.5 95.4719 82.5C98.0382 82.5 100.579 83.0173 102.95 84.0224C105.321 85.0275 107.476 86.5007 109.29 88.3579C111.105 90.215 112.544 92.4198 113.527 94.8463C114.509 97.2728 115.014 99.8736 115.014 102.5L115.014 102.5Z" stroke="black" stroke-width="10" stroke-linecap="round" stroke-linejoin="round"/>
<path d="M115.014 62.5V122.5" stroke="black" stroke-width="10" stroke-linecap="round" stroke-linejoin="round"/>
<path d="M131.916 62.5L171 122.5" stroke="black" stroke-width="10" stroke-linecap="round" stroke-linejoin="round"/>
<path d="M171 62.5L131.915 122.5" stroke="black" stroke-width="10" stroke-linecap="round" stroke-linejoin="round"/>
</svg>

<svg xmlns="http://www.w3.org/2000/svg" width="192" height="192" fill="none" viewBox="0 0 192 192"><path stroke="#000" stroke-linecap="round" stroke-width="10" d="M60.084 101.929c0-4.397-1.415-8.671-4.027-12.161s-6.275-6.003-10.423-7.149a19.124 19.124 0 0 0-12.521.811c-3.974 1.672-7.298 4.637-9.46 8.436a20.392 20.392 0 0 0-2.497 12.584 20.189 20.189 0 0 0 5.493 11.544 19.384 19.384 0 0 0 11.22 5.747c4.256.601 8.586-.25 12.322-2.42m9.893-16.892H21m94.014.071c0 2.626-.505 5.227-1.487 7.654a20.05 20.05 0 0 1-4.237 6.488 19.53 19.53 0 0 1-6.34 4.336 19.154 19.154 0 0 1-7.478 1.522 19.16 19.16 0 0 1-7.479-1.522 19.537 19.537 0 0 1-6.34-4.336 20.04 20.04 0 0 1-4.236-6.488 20.412 20.412 0 0 1-1.487-7.654c0-2.626.505-5.227 1.487-7.654a20.038 20.038 0 0 1 4.236-6.488 19.519 19.519 0 0 1 6.34-4.336 19.155 19.155 0 0 1 7.479-1.522c2.566 0 5.107.517 7.478 1.522a19.511 19.511 0 0 1 6.34 4.336 20.048 20.048 0 0 1 4.237 6.488 20.409 20.409 0 0 1 1.487 7.654h0Zm0-40v60m16.902-60 39.084 60m0-60-39.085 60"/></svg>
